public/img/general/logos/volvo.svg

<svg width="62" height="61" viewBox="0 0 62 61" fill="none" xmlns="http://www.w3.org/2000/svg">
<path d="M46.718 0.119415C46.7838 0.185299 47.615 0.778843 48.5515 1.45182C49.501 2.12479 50.4646 2.8107 50.7016 2.99541L51.124 3.31189L49.6463 4.98725C48.8286 5.91082 48.1556 6.67616 48.1427 6.70201C48.1292 6.72849 47.4833 6.31965 46.6915 5.80492C42.7072 3.20599 38.2088 1.66239 33.2092 1.17475C31.5868 1.01651 29.1196 1.14827 26.3889 1.53125C15.1755 3.1007 5.6646 11.1216 2.19505 21.952C1.16558 25.1445 0.809692 27.5458 0.809692 31.1336C0.809692 33.9172 0.994407 35.632 1.52207 37.9273C3.89688 48.1113 11.5613 56.4357 21.4946 59.6146C24.6871 60.6435 27.0878 61 30.6761 61C35.6099 61 39.5147 60.1029 43.842 57.9787C52.8123 53.5726 58.7755 45.3806 60.3055 35.3543C60.5955 33.4942 60.6356 29.1276 60.3843 27.3734C59.7114 22.7167 58.076 18.3107 55.6883 14.7352L54.8177 13.4293L56.4007 11.5957L57.9707 9.74857L59.4485 11.9651C60.2532 13.1787 60.9656 14.234 61.0315 14.3135C61.0973 14.3794 61.1503 11.3322 61.1503 7.21614V-3.43323e-05H53.8676C49.6728 0.000579834 46.6385 0.0535355 46.718 0.119415ZM33.0509 11.6228C38.2617 12.2693 43.156 15.1053 46.2562 19.2872C46.995 20.2896 47.9451 21.8597 48.3139 22.7174L48.4721 23.0868H30.6761H12.8802L13.0384 22.7174C13.4078 21.8597 14.3579 20.2902 15.0961 19.2872C18.1568 15.1718 23.1041 12.2693 28.1696 11.6228C29.4361 11.4646 31.7709 11.4516 33.0509 11.6228ZM48.3268 39.2733C47.9574 40.1174 46.8362 41.951 46.1367 42.8617C38.9735 52.2279 25.333 53.1379 16.9433 44.8406C15.3997 43.3105 13.7902 41.0152 13.0384 39.2868L12.8802 38.9174H30.6761H48.4851L48.3268 39.2733Z" fill="white"/>
</svg>

<svg width="62" height="61" fill="none" xmlns="http://www.w3.org/2000/svg"><path d="M46.718.12c.066.065.897.659 1.833 1.332.95.673 1.914 1.359 2.15 1.543l.423.317-1.478 1.675c-.817.924-1.49 1.69-1.503 1.715-.014.026-.66-.382-1.452-.897-3.984-2.599-8.482-4.143-13.482-4.63-1.622-.158-4.09-.027-6.82.356-11.213 1.57-20.724 9.59-24.194 20.421C1.165 25.144.81 27.546.81 31.134c0 2.783.184 4.498.712 6.793 2.375 10.184 10.04 18.509 19.973 21.688C24.687 60.644 27.088 61 30.676 61c4.934 0 8.839-.897 13.166-3.021 8.97-4.406 14.934-12.598 16.464-22.625.29-1.86.33-6.226.078-7.98-.673-4.657-2.308-9.063-4.696-12.639l-.87-1.306 1.583-1.833 1.57-1.847 1.478 2.216c.804 1.214 1.517 2.269 1.583 2.348.065.066.118-2.98.118-7.097V0h-7.282c-4.195 0-7.23.054-7.15.12zM33.051 11.622c5.21.646 10.105 3.482 13.205 7.664.739 1.003 1.69 2.573 2.058 3.43l.158.37H12.88l.158-.37c.37-.857 1.32-2.427 2.058-3.43 3.06-4.115 8.008-7.018 13.074-7.664 1.266-.158 3.6-.171 4.88 0zm15.276 27.65c-.37.844-1.49 2.678-2.19 3.589-7.163 9.366-20.804 10.276-29.194 1.979-1.543-1.53-3.153-3.826-3.905-5.554l-.158-.37h35.606l-.16.356z" fill="#fff"/></svg>
